X:1

T:Whistle and I’ll come to you my lad

M:6/8

L:1/8

S:Gow – 3rd Repository (1806)

Z:AK/Fiddler’s Companion

K:B_

B/>c/|(dB)G {G}FED|Ccc c2 B/c/|(dB)G (FD)F|GBB B2 B/c/|(dB)G (FE)D|C(ed) c2 (d/e/)|

(dB)G (FD)F|(GB)B B2:|:d/c/|(Bd)f (Bd)f|(Bd)f f>ed/c/|(Bd)f (Bd)f|(ge)c c>ed/c/|

(Bd)f (Bd)f|Bbg f>gf/e/|(dB)G {G}FED|C(ed) c2 B/c/|(dB)G (FD)F|(GB)B B2:|

 

WHISTLE AND I'LL WAIT FOR YOU (Fead, Agus Fanfad Me Leat). AKA and see "Since Love is the Plan." Irish, Air (6/8 time, "with spirit"). D Major. Standard tuning. AAB. O'Neill (Music of Ireland: 1850 Melodies), 1903/1979; No. 391, pg. 68.

